!!!COM: Palestrina, Giovanni Perluigi da
!!!OPR: Missa In festis Apostolorum (I)
!!!OMD: Gloria
!!!OTL: Qui tollis
**kern	**kern	**kern	**kern	**kern
*Ibass	*Itenor	*Itenor	*Icalto	*Icant
!Bassus	!Tenor 2	!Tenor 1	!Altus	!Cantus
*clefF4	*clefGv2	*clefGv2	*clefG2	*clefG2
*k[]	*k[]	*k[]	*k[]	*k[]
*D:dor	*D:dor	*D:dor	*D:dor	*D:dor
*M4/2	*M4/2	*M4/2	*M4/2	*M4/2
=71	=71	=71	=71	=71
1D	0r	1r	0r	0r
2.F	.	1A	.	.
4G	.	.	.	.
=72	=72	=72	=72	=72
2A	0r	2.c	1A	0r
2.F	.	.	.	.
.	.	4B-	.	.
.	.	2A	2.c	.
8E	.	.	.	.
8D	.	.	.	.
2E	.	[2G	.	.
.	.	.	4B-	.
=73	=73	=73	=73	=73
2F	0r	4G]	2A	0r
.	.	4F	.	.
2BB-	.	1F	2B-	.
1C	.	.	1G	.
.	.	2E	.	.
=74	=74	=74	=74	=74
2r	1r	2F	0F	1a
1F	.	2.A	.	.
.	1A	.	.	2.cc
.	.	4B	.	.
[2A	.	4c	.	.
.	.	4d	.	4b-
=75	=75	=75	=75	=75
4A]	2.c	2.e	0r	2a
8G	.	.	.	.
8F	.	.	.	.
2E	.	.	.	2.g
.	4B-	4d	.	.
2F	2A	4c	.	.
.	.	4A	.	4f
2BB-	2B-	2d	.	[2f
=76	=76	=76	=76	=76
1C	1G	1c	2r	2f]
.	.	.	1c	2e
1F	2r	2A	.	1f
.	2F	[2c	2f	.
=77	=77	=77	=77	=77
0r	2A	2c]	2e	1r
.	2G	2e	2g	.
.	1B-	2d	2f	2r
.	.	[2f	2d	2f
=78	=78	=78	=78	=78
0r	2A	4f]	2c	2a
.	.	4e	.	.
.	2c	2.e	2e	2g
.	2B-	.	2f	1b-
.	.	4d	.	.
.	2G	[2d	2g	.
=79	=79	=79	=79	=79
1r	1A	2d]	1e	1a
.	.	2c#	.	.
2r	2D	1d	1d	[1a
[2D	[2F	.	.	.
=80	=80	=80	=80	=80
2D]	2F]	1.A	2r	1a]
4C#	4E	.	1e	.
4BB	4D	.	.	.
2C#	2E	.	.	1a
2D	2F#	2A	2d	.
=81	=81	=81	=81	=81
1GG	2.G	1B	2d	1g
.	.	.	1g	.
.	4F	.	.	.
1AA	2E	1c	.	1r
.	2A	.	[2f	.
=82	=82	=82	=82	=82
1C	1G	1c	4f]	1r
.	.	.	4e	.
.	.	.	2e	.
1D	2F	2A	2f	1a
.	2D	2F	2f	.
=83	=83	=83	=83	=83
1C	2E	2G	1e	1cc
.	1A	2A	.	.
1BB	.	2D	1d	[1dd
.	2G#	2D	.	.
=84	=84	=84	=84	=84
0AA	0A	2r	2f	2dd]
.	.	2A	4e	2cc
.	.	.	4d	.
.	.	1c	2e	2a
.	.	.	2f	[2cc
=85	=85	=85	=85	=85
1GG	2r	1d	2.g	2cc]
.	2B	.	.	2.b
.	.	.	4f	.
1AA	2c	1c	[1e	.
.	.	.	.	4a
.	[2e	.	.	2a
=86	=86	=86	=86	=86
0E	4e]	2B	0e]	2g#
.	4d	.	.	.
.	2c	2A	.	1a
.	2B	1B	.	.
.	2E	.	.	2g#
=87	=87	=87	=87	=87
[0AA	[0E	[0A	[0c#	[0a
=88	=88	=88	=88	=88
0AA]	0E]	0A]	0c#]	0a]
*-	*-	*-	*-	*-
!!!CDT: 1525/^1526/-1594/2/2
!!!OCY: Italia
!!!AGN: Mass (Paraphrase)
!!!AST: renaissance, vocal
!!!ASW: Gregorian Mass
!!!PWK: Masses, Book Mantuan II
!!!RNB: Cadence finals: A,E
!!!YOR: Le Opere Complete, v. 19, p. 43
!!!YOO: Rome, Italy: Fratelli Scalera
!!!END: 1992//
!!!EED: John Miller
!!!YEC: Copyright 2000, John Miller
!!!YEN: United States of America
!!!YEM: Rights to all derivative electronic formats reserved.
!!!YEM: Refer to licensing agreement for further details.
!!!YEM: This file must be accompanied by the licensing agreement.
!!!YEM: A copy of the licensing agreement may be found at http://www.music-cog.ohio-state.edu/HumdrumDatabases/Palestrina/license.txt
!!!EMD: converted to Humdrum by Bret Aarden
